X:1
T:James Gibb editions
%%score ( 1 2 ) ( 3 4 )
L:1/8
Q:1/4=108
M:4/4
K:G
V:1 treble nm="Midi_20"
V:2 treble 
V:3 bass nm="Midi_20"
V:4 bass 
V:1
"^Fortunatus (11 11. 11 11. & refrain)""^Sir Arthur Sullivan\n(1842-1900)""^Welcome, happy morning!" (GF) G2 A2 B2 | %1
w: ~~'Wel\- * come, hap- py|
w: ~~Earth * with joy con-|
w: ~~Thou, * of life the|
w: ~~Loose * the souls long|
 c2 B2 A2 G2 | G4 F4 | G8 || (Bc) d2 e2 d2 | c2 B2 A2 B2 | A4 ^c4 | d8 || d2 d2 ^c2 c2 | B4 F4 | %10
w: morn- ing!' age to|age shall|say:|'Hell * to- day is|van- quished, heaven is|won to-|day.'|Lo! the Dead is|liv- ing,|
w: fess- es, cloth- ing|her for|spring,|All * good gifts re-|turn with her re-|turn- ing|King:|Bloom in ev- ery|mea- dow,|
w: Au- thor, death didst|un- der-|go,|Tread * the path of|dark- ness, sav- ing|strength to|show.|Come then, True and|Faith- ful,|
w: pri- soned, bound with|Sa- tan's|chain:|All * that now is|fal- len, raise to|life a-|gain:|Show Thy face in|bright- ness,|
 B2 B2 A2 G2 | F8 || G2 G2 F2 E2 | A2 G2 F2 D2 | F4 E4 | D8 ||"^Refrain" (Bc) d2 e2 d2 | %17
w: God for e- ver-|more:|Him, their true Cre-|a- tor, all His|works a-|dore.|'Wel\- * come, hap- py|
w: leaves on ev- ery|bough,|Speak His sor- rows|end- ed, hail his|tri- umph|now.||
w: now ful- fil Thy|word;|'Tis Thine own third|morn- ing: rise, O|bur- ied|Lord!||
w: bid the na- tions|see:|Bring a- gain our|day- light: day re-|turns with|Thee.||
 B2 A2 G2 c2 | B4 A4 | G8 |] %20
w: morn- ing!' age to|age shall|say.|
w: |||
w: |||
w: |||
V:2
 D2 D2 F2 G2 | G2 G2 E2 D2 | E4 D4 | D8 || G2 G2 G2 G2 | F2 G2 A2 G2 | F4 G4 | F8 || F2 F2 F2 E2 | %9
 D4 D4 | G2 G2 F2 E2 | D8 || D2 D2 ^C2 C2 | D2 E2 D2 D2 | D4 ^C4 | D8 || G2 G2 G2 G2 | %17
 G2 F2 G2 A2 | G4 F4 | D8 |] %20
V:3
 (B,A,) B,2 D2 D2 | E2 D2 C2 B,2 | A,4 A,4 | B,8 || D2 D2 C2 D2 | D2 D2 D2 D2 | D4 A,4 | A,8 || %8
 B,2 B,2 ^A,2 A,2 | B,4 B,4 | B,2 B,2 B,2 B,2 | B,8 || B,2 B,2 A,2 A,2 | A,2 A,2 A,2 B,2 | %14
 A,4 G,4 | F,8 || D2 D2 C2 D2 | D2 C2 B,2 E2 | D6 C2 | %19
"^Venantius Honorius Clementianus Fortunatus (c.530-609)\ntrans. by John Ellerton (1826-93)" B,8 |] %20
V:4
 G,2 G,2 D,2 G,2 | C,2 G,,2 A,,2 B,,2 | C,4 D,4 | G,,8 || (G,A,) B,2 C2 B,2 | A,2 G,2 F,2 G,2 | %6
 A,4 A,,4 | D,8 || B,,2 D,2 F,2 F,,2 | B,,4 B,,4 | B,,2 B,,2 E,2 G,2 | B,8 || E,2 E,2 A,2 G,2 | %13
 F,2 ^C,2 D,2 G,,2 | A,,4 A,,4 | D,8 || (G,A,) B,2 C2 B,2 | G,2 D,2 E,2 C,2 | D,4 D,4 | G,,8 |] %20

